assets/images/doc-stats-reviews.svg

<svg width="56" height="56" viewBox="0 0 56 56" fill="none" xmlns="http://www.w3.org/2000/svg">
<rect width="56" height="56" rx="28" fill="#F3F4F6"/>
<path d="M29.5143 20.3636H21.3688C21.0379 20.3636 20.7197 20.3763 20.4143 20.4145C16.9906 20.7073 15.2725 22.7309 15.2725 26.46V31.5509C15.2725 36.6418 17.3088 37.6473 21.3688 37.6473H21.8779C22.1579 37.6473 22.527 37.8382 22.6925 38.0545L24.2197 40.0909C24.8943 40.9945 25.9888 40.9945 26.6634 40.0909L28.1906 38.0545C28.3816 37.8 28.687 37.6473 29.0052 37.6473H29.5143C33.2434 37.6473 35.267 35.9418 35.5597 32.5054C35.5979 32.2 35.6106 31.8818 35.6106 31.5509V26.46C35.6106 22.4 33.5743 20.3636 29.5143 20.3636ZM20.9997 30.5454C20.287 30.5454 19.727 29.9727 19.727 29.2727C19.727 28.5727 20.2997 28 20.9997 28C21.6997 28 22.2725 28.5727 22.2725 29.2727C22.2725 29.9727 21.6997 30.5454 20.9997 30.5454ZM25.4416 30.5454C24.7288 30.5454 24.1688 29.9727 24.1688 29.2727C24.1688 28.5727 24.7416 28 25.4416 28C26.1416 28 26.7143 28.5727 26.7143 29.2727C26.7143 29.9727 26.1543 30.5454 25.4416 30.5454ZM29.8961 30.5454C29.1834 30.5454 28.6234 29.9727 28.6234 29.2727C28.6234 28.5727 29.1961 28 29.8961 28C30.5961 28 31.1688 28.5727 31.1688 29.2727C31.1688 29.9727 30.5961 30.5454 29.8961 30.5454Z" fill="#1C2A3A"/>
<path d="M40.7016 21.3691V26.46C40.7016 29.0054 39.9126 30.7363 38.3344 31.6909C37.9526 31.92 37.5071 31.6145 37.5071 31.1691L37.5198 26.46C37.5198 21.3691 34.6053 18.4545 29.5144 18.4545L21.7635 18.4673C21.318 18.4673 21.0126 18.0218 21.2416 17.64C22.1962 16.0618 23.9271 15.2727 26.4598 15.2727H34.6053C38.6653 15.2727 40.7016 17.3091 40.7016 21.3691Z" fill="#1C2A3A"/>
</svg>

<svg xmlns="http://www.w3.org/2000/svg" width="56" height="56" fill="none" viewBox="0 0 56 56"><rect width="56" height="56" fill="#f3f4f6" rx="28"/><path fill="#1c2a3a" d="M29.514 20.364H21.37c-.331 0-.65.012-.955.05-3.423.293-5.142 2.317-5.142 6.046v5.09c0 5.092 2.037 6.097 6.097 6.097h.509c.28 0 .649.191.814.407l1.528 2.037c.674.904 1.769.904 2.443 0l1.528-2.037c.19-.254.496-.407.814-.407h.51c3.728 0 5.752-1.705 6.045-5.142.038-.305.05-.623.05-.954V26.46c0-4.06-2.036-6.096-6.096-6.096M21 30.545a1.27 1.27 0 0 1-1.273-1.272c0-.7.573-1.273 1.273-1.273s1.273.573 1.273 1.273S21.7 30.545 21 30.545m4.442 0a1.27 1.27 0 0 1-1.273-1.272c0-.7.573-1.273 1.273-1.273s1.272.573 1.272 1.273-.56 1.272-1.272 1.272m4.454 0a1.27 1.27 0 0 1-1.273-1.272c0-.7.573-1.273 1.273-1.273s1.273.573 1.273 1.273-.573 1.272-1.273 1.272"/><path fill="#1c2a3a" d="M40.702 21.37v5.09c0 2.545-.79 4.276-2.368 5.23-.381.23-.827-.076-.827-.52l.013-4.71c0-5.09-2.915-8.006-8.006-8.006l-7.75.013c-.446 0-.751-.445-.522-.827.954-1.578 2.685-2.367 5.218-2.367h8.145c4.06 0 6.097 2.036 6.097 6.096"/></svg>
